X:88
T:O My Love is Like the Red, Red Rose
C:arr. Carlo Minasi
M:C
L:1/8
B:Chappell's One Hundred Scotch Melodies
B:Arranged for the Concertina by Carlo Minasi
Q:"Moderato  "1/4=120
Z:Peter Dunk 2012
K:C
!p!GE|(C>CD>E) (c>BA>G)|(A>GAc) [d2G2B,2G,2] (cd/e/)|\
(C>CD>E) (c>BA>G)| ([AF]>[GE][AF][BD]) [c3E3]||
G|(cedc) (A<c) (GE)|G>G fe {e}d2 (g>f)|\
([ec]gec) ([AF]>c[GE]E)|(G>G[AF][BD]) [c3E3] G|
(C>CD>E) (c>BA>G)|(A>GAc) [d2G2B,2G,2] (cd/e/)|\
(C>CD>E) (c>BA>G)| ([AF]>[GE][AF][BD]) [c2E2]||

